images/ic-Organization-and-Human-Capital.svg

<svg height="20" viewBox="0 0 20 20" width="20" xmlns="http://www.w3.org/2000/svg"><g fill="none"><path d="m10 2c-4.41 0-8 3.59-8 8s3.59 8 8 8 8-3.59 8-8-3.59-8-8-8zm-4 12c-1.1 0-2-.9-2-2s.9-2 2-2 2 .9 2 2-.9 2-2 2zm4-6c-1.1 0-2-.9-2-2s.9-2 2-2 2 .9 2 2-.9 2-2 2zm4 6c-1.1 0-2-.9-2-2s.9-2 2-2 2 .9 2 2-.9 2-2 2z" fill="#e0be41"/><g fill="#3e4241"><path d="m10 0c-5.52 0-10 4.48-10 10s4.48 10 10 10 10-4.48 10-10-4.48-10-10-10zm0 18c-4.41 0-8-3.59-8-8s3.59-8 8-8 8 3.59 8 8-3.59 8-8 8z"/><circle cx="6" cy="12" r="2"/><circle cx="10" cy="6" r="2"/><circle cx="14" cy="12" r="2"/></g></g></svg>

<?xml version="1.0" encoding="UTF-8"?>
<svg width="20px" height="20px" viewBox="0 0 20 20" version="1.1" xmlns="http://www.w3.org/2000/svg" xmlns:xlink="http://www.w3.org/1999/xlink">
    <!-- Generator: Sketch 54.1 (76490) - https://sketchapp.com -->
    <title>ic-Organization-and-Human-Capital</title>
    <desc>Created with Sketch.</desc>
    <g id="Page-1" stroke="none" stroke-width="1" fill="none" fill-rule="evenodd">
        <g id="ic-Organization-and-Human-Capital" fill-rule="nonzero">
            <path d="M10,2 C5.59,2 2,5.59 2,10 C2,14.41 5.59,18 10,18 C14.41,18 18,14.41 18,10 C18,5.59 14.41,2 10,2 Z M6,14 C4.9,14 4,13.1 4,12 C4,10.9 4.9,10 6,10 C7.1,10 8,10.9 8,12 C8,13.1 7.1,14 6,14 Z M10,8 C8.9,8 8,7.1 8,6 C8,4.9 8.9,4 10,4 C11.1,4 12,4.9 12,6 C12,7.1 11.1,8 10,8 Z M14,14 C12.9,14 12,13.1 12,12 C12,10.9 12.9,10 14,10 C15.1,10 16,10.9 16,12 C16,13.1 15.1,14 14,14 Z" id="Shape" fill="#E0BE41"></path>
            <path d="M10,0 C4.48,0 0,4.48 0,10 C0,15.52 4.48,20 10,20 C15.52,20 20,15.52 20,10 C20,4.48 15.52,0 10,0 Z M10,18 C5.59,18 2,14.41 2,10 C2,5.59 5.59,2 10,2 C14.41,2 18,5.59 18,10 C18,14.41 14.41,18 10,18 Z" id="Shape" fill="#3E4241"></path>
            <circle id="Oval" fill="#3E4241" cx="6" cy="12" r="2"></circle>
            <circle id="Oval" fill="#3E4241" cx="10" cy="6" r="2"></circle>
            <circle id="Oval" fill="#3E4241" cx="14" cy="12" r="2"></circle>
        </g>
    </g>
</svg>
